X:1
T:I Cannot Change My Heart
T:I Cannot Change My Heart
T:Elisha Albright Hoffman
T:Mary F. Bigelow, 1891
T:Public Domain Courtesy of the Cyber Hymnal™
C:Elisha Albright Hoffman
Z:Public Domain
Z:Courtesy of the Cyber Hymnal™
%%score ( 1 2 ) ( 3 4 )
L:1/8
Q:1/4=100
M:6/8
K:C
V:1 treble 
V:2 treble 
V:3 bass 
V:4 bass 
V:1
 C | [CE]2 [CE] [CE]2 C | [CF]2 [CF] [CF]2 [CD] | [CE]2 [CE] [CE]2 C | [B,D]3- [B,D]2 C | %5
w: 1.~I|can- not change my|sin- ful heart, Nor|make it pure and|sweet, * But|
w: 2.~I|can- not e- ven|half re- pent Of|deeds that have been|wrong, * But|
w: 3.~I|can- not keep this|new- found way In|my own hu- man|strength, * But|
w: 4.~I|can- not bring my|life to Christ By|my de- sires a-|lone, * But|
w: 5.~Per-|haps I may not|serve Him long, My|days may soon be|done; * But|
 [CE]2 [CE] [CE]2 C | [CF]2 [CF] [CF]2 [FA] | [CG]2 [CD] [CE]2 [B,D] | C3- C2 ||"^Refrain" [EG] | %10
w: I can do what|is my part: Bring|it to Je- sus’|feet. *||
w: I can turn a-|bout and leave The|path I’ve tra- veled|long. *|At|
w: I can trust in|Him whose power Will|con- quer sin at|length. *||
w: I can tell my|wish to God, And|bind it to His|throne. *||
w: I can give each|day to Him With|ev- ery ris- ing|morn. *||
 [Ec]2 [Ge] [Ec]2 [EG] | [Ec]3- [Ec]2 [Ec] | [EG]2 [CE] [B,D]2 [CD] | [B,D]3- [B,D]2 C | %14
w: ||||
w: Je- sus’ bless- èd|feet, * My|soul’s di- vine re-|treat, * I|
w: ||||
w: ||||
w: ||||
 [CE]2 [CE] [CE]2 C | [CF]2 [CF] [CF]2 [FA] | [CG]2 [CD] [CE]2 [B,D] | (C3- C2) |] %18
w: ||||
w: find the need- ed|help each day To|walk the nar- row|way. *|
w: ||||
w: ||||
w: ||||
V:2
 C | x5 C | x6 | x5 C | x5 C | x5 C | x6 | x6 | C3- C2 || x | x6 | x6 | x6 | x5 C | x5 C | x6 | %16
 x6 | C3- C2 |] %18
V:3
 [C,E,] | [C,G,]2 [C,G,] [C,G,]2 [C,E,] | [A,,F,]2 [C,A,] [F,A,]2 [^F,A,] | %3
w: ~|~ ~ ~ ~|~ ~ ~ ~|
 G,2 [E,G,] [C,G,]2 [E,G,] | G,3- G,2 [C,E,] | [C,G,]2 [C,G,] [C,G,]2 [C,E,] | %6
w: ~ ~ ~ ~|~ * ~|~ ~ ~ ~|
 [A,,F,]2 [C,A,] [F,A,]2 [F,C] | [E,C]2 [F,A,] G,2 [G,,F,] | [C,E,]3- [C,E,]2 || z | z3 z2 [C,C] | %11
w: ~ ~ ~ ~|~ ~ ~ ~|~ *||At|
 [C,G,]2 [C,G,] [C,G,]2 [C,G,] | (C2 G,) (G,E,)[D,^F,] | [G,,G,]3- [G,,G,]2 [C,E,] | %14
w: His dear feet, My|soul’s * blest * re-|treat, * *|
 [C,G,]2 [C,G,] [C,G,]2 [C,E,] | [A,,F,]2 [C,A,] [F,A,]2 [F,C] | [E,C]2 [F,A,] G,2 [G,,F,] | %17
w: |||
 [C,E,]3- [C,E,]2 |] %18
w: |
V:4
 x | x6 | x6 | G,2 x4 | G,3- G,2 x | x6 | x6 | x3 G,2 x | x5 || x | x6 | x6 | C,3 D,2 x | x6 | x6 | %15
 x6 | x3 G,2 x | x5 |] %18

